Newaita-dark/actions/16/draw-path.svg

<svg height="16" viewBox="0 0 16 16" width="16" xmlns="http://www.w3.org/2000/svg"><g fill="#e0e0e0"><path d="m11.070312 2.59375c-.257812-.261719-.675781-.261719-.933593 0l-7.019531 7.015625h.003906c-.078125.082031-.136719.179687-.167969.285156l-.933594 3.273438c-.066406.230469-.003906.480469.164063.648437.171875.167969.417968.234375.648437.167969l3.273438-.9375c.109375-.03125.207031-.085937.285156-.167969l.003906.003906 7.015625-7.015624c.257813-.261719.257813-.675782 0-.9375zm.703126 2.570312c.128906.128907.128906.339844 0 .46875l-1.171876 1.167969-1.402343-1.402343 1.167969-1.167969c.132812-.132813.339843-.132813.46875 0zm-3.042969.703126 1.40625 1.402343-.9375.9375-1.402344-1.40625zm-1.402344 1.402343 1.402344 1.402344-3.273438 3.277344-.0625-.066407-.636719-.636718-.640624-.636719-.0625-.066406zm0 0"/><path d="m3.308594 7.734375h.660156v-2.648437h-.660156zm0 0"/><path d="m10.914062 12.722656v-.691406h-2.976562v.691406zm0 0"/><path d="m10.914062 14.042969c-.183593 0-.328124-.144531-.328124-.328125v-2.648438c0-.183594.144531-.328125.328124-.328125h2.648438c.183594 0 .328125.144531.328125.328125v2.648438c0 .183594-.144531.328125-.328125.328125zm.496094-.660157h1.65625c.089844 0 .164063-.074218.164063-.164062v-1.65625c0-.089844-.074219-.164062-.164063-.164062h-1.65625c-.089844 0-.164062.074218-.164062.164062v1.65625c0 .089844.074218.164062.164062.164062zm0 0"/><path d="m2.316406 5.417969c-.183594 0-.332031-.148438-.332031-.332031v-2.644532c0-.183594.148437-.332031.332031-.332031h2.644532c.183593 0 .332031.148437.332031.332031v2.644532c0 .183593-.148438.332031-.332031.332031zm.496094-.664063h1.652344c.09375 0 .164062-.070312.164062-.164062v-1.652344c0-.09375-.070312-.167969-.164062-.167969h-1.652344c-.09375 0-.167969.074219-.167969.167969v1.652344c0 .09375.074219.164062.167969.164062zm0 0"/></g></svg>

<svg xmlns="http://www.w3.org/2000/svg" xmlns:xlink="http://www.w3.org/1999/xlink" width="16px" height="16px" viewBox="0 0 16 16" version="1.1">
<g id="surface1">
     <defs>
  <style id="current-color-scheme" type="text/css">
   .ColorScheme-Text { color:#eeeeee; } .ColorScheme-Highlight { color:#424242; }
  </style>
 </defs>
<path style="fill:currentColor" class="ColorScheme-Text" d="M 11.070312 2.59375 C 10.8125 2.332031 10.394531 2.332031 10.136719 2.59375 L 3.117188 9.609375 L 3.121094 9.609375 C 3.042969 9.691406 2.984375 9.789062 2.953125 9.894531 L 2.019531 13.167969 C 1.953125 13.398438 2.015625 13.648438 2.183594 13.816406 C 2.355469 13.984375 2.601562 14.050781 2.832031 13.984375 L 6.105469 13.046875 C 6.214844 13.015625 6.3125 12.960938 6.390625 12.878906 L 6.394531 12.882812 L 13.410156 5.867188 C 13.667969 5.605469 13.667969 5.191406 13.410156 4.929688 Z M 11.773438 5.164062 C 11.902344 5.292969 11.902344 5.503906 11.773438 5.632812 L 10.601562 6.800781 L 9.199219 5.398438 L 10.367188 4.230469 C 10.5 4.097656 10.707031 4.097656 10.835938 4.230469 Z M 8.730469 5.867188 L 10.136719 7.269531 L 9.199219 8.207031 L 7.796875 6.800781 Z M 7.328125 7.269531 L 8.730469 8.671875 L 5.457031 11.949219 L 5.394531 11.882812 L 4.757812 11.246094 L 4.117188 10.609375 L 4.054688 10.542969 Z M 7.328125 7.269531 "/>
     <defs>
  <style id="current-color-scheme" type="text/css">
   .ColorScheme-Text { color:#eeeeee; } .ColorScheme-Highlight { color:#424242; }
  </style>
 </defs>
<path style="fill:currentColor" class="ColorScheme-Text" d="M 3.308594 7.734375 L 3.96875 7.734375 L 3.96875 5.085938 L 3.308594 5.085938 Z M 3.308594 7.734375 "/>
     <defs>
  <style id="current-color-scheme" type="text/css">
   .ColorScheme-Text { color:#eeeeee; } .ColorScheme-Highlight { color:#424242; }
  </style>
 </defs>
<path style="fill:currentColor" class="ColorScheme-Text" d="M 10.914062 12.722656 L 10.914062 12.03125 L 7.9375 12.03125 L 7.9375 12.722656 Z M 10.914062 12.722656 "/>
     <defs>
  <style id="current-color-scheme" type="text/css">
   .ColorScheme-Text { color:#eeeeee; } .ColorScheme-Highlight { color:#424242; }
  </style>
 </defs>
<path style="fill:currentColor" class="ColorScheme-Text" d="M 10.914062 14.042969 C 10.730469 14.042969 10.585938 13.898438 10.585938 13.714844 L 10.585938 11.066406 C 10.585938 10.882812 10.730469 10.738281 10.914062 10.738281 L 13.5625 10.738281 C 13.746094 10.738281 13.890625 10.882812 13.890625 11.066406 L 13.890625 13.714844 C 13.890625 13.898438 13.746094 14.042969 13.5625 14.042969 Z M 11.410156 13.382812 L 13.066406 13.382812 C 13.15625 13.382812 13.230469 13.308594 13.230469 13.21875 L 13.230469 11.5625 C 13.230469 11.472656 13.15625 11.398438 13.066406 11.398438 L 11.410156 11.398438 C 11.320312 11.398438 11.246094 11.472656 11.246094 11.5625 L 11.246094 13.21875 C 11.246094 13.308594 11.320312 13.382812 11.410156 13.382812 Z M 11.410156 13.382812 "/>
     <defs>
  <style id="current-color-scheme" type="text/css">
   .ColorScheme-Text { color:#eeeeee; } .ColorScheme-Highlight { color:#424242; }
  </style>
 </defs>
<path style="fill:currentColor" class="ColorScheme-Text" d="M 2.316406 5.417969 C 2.132812 5.417969 1.984375 5.269531 1.984375 5.085938 L 1.984375 2.441406 C 1.984375 2.257812 2.132812 2.109375 2.316406 2.109375 L 4.960938 2.109375 C 5.144531 2.109375 5.292969 2.257812 5.292969 2.441406 L 5.292969 5.085938 C 5.292969 5.269531 5.144531 5.417969 4.960938 5.417969 Z M 2.8125 4.753906 L 4.464844 4.753906 C 4.558594 4.753906 4.628906 4.683594 4.628906 4.589844 L 4.628906 2.9375 C 4.628906 2.84375 4.558594 2.769531 4.464844 2.769531 L 2.8125 2.769531 C 2.71875 2.769531 2.644531 2.84375 2.644531 2.9375 L 2.644531 4.589844 C 2.644531 4.683594 2.71875 4.753906 2.8125 4.753906 Z M 2.8125 4.753906 "/>
</g>
</svg>
